packages/ui-solid/icons/folder_28.svg

<svg width="28" height="28" viewBox="0 0 28 28" fill="none" xmlns="http://www.w3.org/2000/svg">
<path fill-rule="evenodd" clip-rule="evenodd" d="M10.9659 6.04679C10.7854 6.0187 10.5889 6.0162 10.005 6.0162H9.51684C8.31624 6.0162 7.48157 6.01723 6.83766 6.08088C6.20807 6.14312 5.85836 6.2582 5.59886 6.42527C5.29039 6.62388 5.02802 6.88625 4.82941 7.19472C4.66233 7.45422 4.54726 7.80393 4.48502 8.43352C4.42137 9.07743 4.42034 9.9121 4.42034 11.1127V15.9059C4.42034 17.5668 4.42225 18.722 4.53934 19.5929C4.65295 20.4379 4.85993 20.8793 5.17294 21.1923C5.48594 21.5053 5.9273 21.7123 6.77229 21.8259C7.64318 21.943 8.79838 21.9449 10.4594 21.9449H17.5408C19.2018 21.9449 20.357 21.943 21.2278 21.8259C22.0728 21.7123 22.5142 21.5053 22.8272 21.1923C23.1402 20.8793 23.3472 20.4379 23.4608 19.5929C23.5779 18.722 23.5798 17.5668 23.5798 15.9059V14.7717C23.5798 13.1813 23.578 12.0753 23.4699 11.2381C23.3649 10.4248 23.1731 9.99533 22.8851 9.68802C22.8471 9.64756 22.8079 9.60833 22.7674 9.57041C22.4601 9.28238 22.0307 9.09054 21.2173 8.98552C20.3802 8.87743 19.2742 8.87567 17.6838 8.87567H16.8622C16.8397 8.87567 16.8176 8.87567 16.7958 8.87568C16.3035 8.87578 15.9596 8.87585 15.6244 8.82366C14.9284 8.71531 14.2689 8.4403 13.7022 8.02206C13.4292 7.82063 13.1873 7.5763 12.8409 7.22646C12.8255 7.21094 12.81 7.19523 12.7942 7.17929C12.3833 6.76448 12.2432 6.6266 12.0963 6.51817C11.763 6.27223 11.3752 6.11051 10.9659 6.04679ZM10.0714 4.2162C10.5637 4.2161 10.9076 4.21603 11.2428 4.26821C11.9388 4.37657 12.5983 4.65158 13.165 5.06981C13.438 5.27124 13.6799 5.51558 14.0263 5.86542C14.0417 5.88093 14.0572 5.89665 14.073 5.91258C14.4839 6.3274 14.624 6.46528 14.7709 6.5737C15.1042 6.81965 15.492 6.98137 15.9013 7.04509C16.0818 7.07318 16.2783 7.07567 16.8622 7.07567L17.7464 7.07567C19.2593 7.07564 20.482 7.07563 21.4478 7.20034C22.4508 7.32984 23.3048 7.60704 23.9984 8.25709C24.0672 8.32158 24.1339 8.38828 24.1984 8.45709C24.8484 9.15065 25.1256 10.0047 25.2551 11.0076C25.3798 11.9735 25.3798 13.1962 25.3798 14.709V15.9714C25.3798 17.5512 25.3798 18.8279 25.2447 19.8328C25.1043 20.8774 24.8032 21.7619 24.1 22.4651C23.3968 23.1683 22.5123 23.4694 21.4677 23.6098C20.4629 23.7449 19.1862 23.7449 17.6063 23.7449H10.3938C8.81398 23.7449 7.53729 23.7449 6.53245 23.6098C5.48785 23.4694 4.60333 23.1683 3.90014 22.4651C3.19695 21.7619 2.89583 20.8774 2.75539 19.8328C2.62029 18.8279 2.62032 17.5512 2.62034 15.9714L2.62034 11.0658C2.62033 9.92319 2.62032 8.99932 2.69375 8.25645C2.7696 7.48914 2.93069 6.81869 3.31597 6.2203C3.65371 5.69573 4.09987 5.24957 4.62444 4.91183C5.22283 4.52656 5.89328 4.36546 6.66059 4.28961C7.40346 4.21618 8.32733 4.21619 9.46995 4.2162L10.005 4.2162C10.0275 4.2162 10.0496 4.2162 10.0714 4.2162Z" fill="#007AFF"/>
</svg>

<svg xmlns="http://www.w3.org/2000/svg" width="28" height="28" fill="none"><path fill="currentColor" fill-rule="evenodd" d="M10.966 6.047c-.18-.028-.377-.03-.961-.03h-.488c-1.2 0-2.035 0-2.68.064-.629.062-.979.177-1.238.344a2.6 2.6 0 0 0-.77.77c-.167.26-.282.609-.344 1.239-.064.643-.065 1.478-.065 2.679v4.793c0 1.66.002 2.816.12 3.687.113.845.32 1.286.633 1.6.313.312.754.52 1.6.633.87.117 2.025.119 3.686.119h7.082c1.66 0 2.816-.002 3.687-.12.845-.113 1.286-.32 1.6-.633.312-.313.52-.754.633-1.6.117-.87.119-2.025.119-3.686v-1.134c0-1.59-.002-2.697-.11-3.534-.105-.813-.297-1.243-.585-1.55a3 3 0 0 0-.118-.118c-.307-.288-.736-.48-1.55-.584-.837-.109-1.943-.11-3.533-.11h-.888c-.492 0-.836 0-1.172-.052a4.4 4.4 0 0 1-1.922-.802c-.273-.201-.515-.446-.861-.796l-.047-.047c-.41-.415-.55-.552-.698-.66a2.6 2.6 0 0 0-1.13-.472m-.895-1.83c.493 0 .837-.001 1.172.051a4.4 4.4 0 0 1 1.922.802c.273.201.515.446.861.795l.047.048c.41.414.551.552.698.66a2.6 2.6 0 0 0 1.13.472c.18.028.377.03.961.03h.884c1.513 0 2.736 0 3.702.125 1.003.13 1.857.407 2.55 1.057q.104.097.2.2c.65.694.928 1.548 1.057 2.55.125.966.125 2.19.125 3.702v1.262c0 1.58 0 2.857-.135 3.862-.14 1.044-.442 1.929-1.145 2.632s-1.588 1.004-2.632 1.145c-1.005.135-2.282.135-3.862.135h-7.212c-1.58 0-2.857 0-3.862-.135-1.044-.14-1.929-.442-2.632-1.145s-1.004-1.588-1.145-2.632c-.135-1.005-.135-2.282-.135-3.862v-4.905c0-1.143 0-2.067.074-2.81.076-.767.237-1.437.622-2.036a4.4 4.4 0 0 1 1.308-1.308c.599-.385 1.27-.547 2.037-.622.742-.074 1.666-.074 2.809-.074z" clip-rule="evenodd"/></svg>
